X:39
T:Metsakukkia  (Forest flowers)
M:3/4
L:1/8
Q:1/4=140
R:waltz
K:Gm
|: D2 | "Gm" D2 G2 A2 | B2 A2 G2 | (d6 | d4) D2 |
D2 G2 A2 | B2 A2 G2 | "Cm" (e6 | e4) d2 | !
c2 d2 (e2 | e2) d2 c2 | "Gm" d4 B2 | G4 D2 |
"D7" D2 ^F3 A | c2 B2 A2 |[1 "Gm" (G6 | "fine" G4) :|
[2 "Gm" (G6 | G2) g2 | !
|: ^f2 | "F7" (f6 | f2) g3 e | "Bb" (d6 | d2) e3 d |
"D7" (c6 | c2) d3 c | "Gm" (B6 | B2) c2 ^c2 | !
(d6 | d2) c2 B2 | "D7" (A6 | A2) B2 A2 |
D2 ^C2 D2 | B4 A2 |[1 "Gm" (G6 | G2) g2 :|[2 "Gm" (G6 | G4) | !
|: (g^f | "Gm" g2) z2 (d^c | d2) z2 (BA | B2) z2 (G^F | G2) z2 d2 |
"Cm" e3 ded | c2 e2 g2 | "Gm" (d6 | d4) D2 | !
"D7" D2 ^F3 G | A4 E2 | "Gm" D2 G3 A | B4 E2 |
"D7" D2 ^F2 A2 | B4 A2 |[1 "Gm" (G6 | G2) z2 :|
[2 "Gm" (G6 | "DC al fine" G4) ||
